src/assets/tokens/svUSD.svg

<svg width="126" height="126" viewBox="0 0 126 126" fill="none" xmlns="http://www.w3.org/2000/svg">
<path d="M63 124.25C96.8274 124.25 124.25 96.8274 124.25 63C124.25 29.1726 96.8274 1.75 63 1.75C29.1726 1.75 1.75 29.1726 1.75 63C1.75 96.8274 29.1726 124.25 63 124.25Z" fill="white" stroke="url(#paint0_linear_1557_1042)" stroke-width="2.5"/>
<circle cx="62.9988" cy="62.9997" r="49.9286" fill="#F8F5FF" stroke="#D4C6F5" stroke-width="3"/>
<path d="M65.9829 60.479H58.2518C55.3791 60.479 53.0417 58.1417 53.0417 55.2688C53.0417 52.3961 55.379 50.0587 58.2518 50.0587H73.7141C75.1064 50.0587 76.2351 48.9299 76.2351 47.5378C76.2351 46.1456 75.1063 45.0168 73.7141 45.0168H64.6386V39.8067C64.6386 38.4144 63.5097 37.2858 62.1176 37.2858C60.7253 37.2858 59.5967 38.4146 59.5967 39.8067V45.0168H58.2522C52.5991 45.0168 48 49.6159 48 55.269C48 60.9221 52.5991 65.5212 58.2522 65.5212H65.9832C68.8559 65.5212 71.1934 67.8584 71.1934 70.7313C71.1934 73.6041 68.8561 75.9414 65.9832 75.9414H50.5209C49.1287 75.9414 48 77.0702 48 78.4623C48 79.8545 49.1288 80.9833 50.5209 80.9833H59.5965V86.1934C59.5965 87.5857 60.7253 88.7143 62.1175 88.7143C63.5097 88.7143 64.6384 87.5855 64.6384 86.1934V80.9833H65.9829C71.636 80.9833 76.2351 76.3842 76.2351 70.7311C76.2351 65.078 71.636 60.479 65.9829 60.479Z" fill="#A682FF" stroke="#A682FF" stroke-width="0.8"/>
<defs>
<linearGradient id="paint0_linear_1557_1042" x1="63" y1="3" x2="63" y2="123" gradientUnits="userSpaceOnUse">
<stop stop-color="#6960EC"/>
<stop offset="1" stop-color="#A988FF"/>
</linearGradient>
</defs>
</svg>

<svg width="126" height="126" fill="none" xmlns="http://www.w3.org/2000/svg"><path d="M63 124.25c33.827 0 61.25-27.423 61.25-61.25S96.827 1.75 63 1.75 1.75 29.173 1.75 63 29.173 124.25 63 124.25z" fill="#fff" stroke="url(#paint0_linear_1557_1042)" stroke-width="2.5"/><circle cx="62.999" cy="63" r="49.929" fill="#F8F5FF" stroke="#D4C6F5" stroke-width="3"/><path d="M65.983 60.479h-7.731a5.216 5.216 0 0 1-5.21-5.21 5.216 5.216 0 0 1 5.21-5.21h15.462a2.521 2.521 0 0 0 0-5.042H64.64v-5.21a2.521 2.521 0 0 0-5.042 0v5.21h-1.345C52.6 45.017 48 49.616 48 55.269c0 5.653 4.6 10.252 10.252 10.252h7.731a5.216 5.216 0 0 1 5.21 5.21 5.216 5.216 0 0 1-5.21 5.21H50.521a2.521 2.521 0 0 0 0 5.042h9.075v5.21a2.521 2.521 0 0 0 5.042 0v-5.21h1.345c5.653 0 10.252-4.599 10.252-10.252 0-5.653-4.599-10.252-10.252-10.252z" fill="#A682FF" stroke="#A682FF" stroke-width=".8"/><defs><linearGradient id="paint0_linear_1557_1042" x1="63" y1="3" x2="63" y2="123" gradientUnits="userSpaceOnUse"><stop stop-color="#6960EC"/><stop offset="1" stop-color="#A988FF"/></linearGradient></defs></svg>
